X:4741
T:El Chalaneru (XA 10)
R:Xiraldilla
C:Tradicional
S:Msica Tradicional Asturiana, (C) Tello & Tito. Asturies, 2001.
S:http://pagina.de/MusTradAst <telloytito@asturies.org>
A:Asturies
Z:Mtodu de Xuacu Amieva 10
M:2/4
L:1/8
Q:1/4=90
W:Son de La Chalana, son,
W:son del puebln chalaneru.
W:Que si La Chalana muerre
W:Llaviana perdida yes!
W:
W:Pie:
W:Si pases el puente
W:nun caigas al agua
W:que los mios amores
W:son de La Chalana.
W:
W:Chalaneru, Chalaneru,
W:Qu lleves ena Chalana
W:Llevo roses y claveles
W:y el corazn d'una xana.
W:
W:Pie
W:
W:Ena fonte La Nalona
W:hai una xana llorando,
W:porque diz que nun la quieren
W:los rapacinos d'Entrialgo.
W:
W:Pie
K:C
|E2 E~D|C4|E3 F|G2 GF|G4-|G4|G2 GG|G4|A3 ~G|F2 G~F|[1 E4-|E4 :|
|: [2 E4|F3 ~E|D2 E~D|C4|D3 ~C|B,2 C2-|[1 C3 E :|[2 C4|
